X: 3
T: The Gravel Walks
R: reel
M: 4/4
L: 1/8
K: Ador
|:A2 eA ^c/B/A eA|A2 eA BAGB|A2 eA B/^c/d ef|gedc BAGB:|
A2 aA gAfA|A/A/A eA BAGB|A/A/A aA gAfA|gedc BAGB|
A2 aA gAfA|A/A/A eA BAGB|ABcd efga|gedc BAGB||
|:c/B/A BG A2 AB|cAAd BAGB|c/B/A BG ABcd|efge dBGB:|
|:c2 gc acgc|c/c/c gc BAGB|c2 gc acga|gedc BAGB|
c2 gc acgc|c/c/c gc BAGB|ABcd efga|gedc BAGB|]


Tune 42	Setting 42

